Newaita-dark/apps/32/darktable.svg

<?xml version="1.0" encoding="UTF-8"?>
<svg xmlns="http://www.w3.org/2000/svg" xmlns:xlink="http://www.w3.org/1999/xlink" width="32pt" height="32pt" viewBox="0 0 32 32" version="1.1">
<defs>
<radialGradient id="radial0" gradientUnits="userSpaceOnUse" cx="450.908936" cy="189.579361" fx="450.908936" fy="189.579361" r="21.166656" gradientTransform="matrix(0.00000017417,-0.0781325,-0.140638,-0.000000101539,44.192392,63.595329)">
<stop offset="0" style="stop-color:rgb(0%,0%,0%);stop-opacity:0.313725;"/>
<stop offset="0.222222" style="stop-color:rgb(0%,0%,0%);stop-opacity:0.27451;"/>
<stop offset="1" style="stop-color:rgb(0%,0%,0%);stop-opacity:0;"/>
</radialGradient>
<radialGradient id="radial1" gradientUnits="userSpaceOnUse" cx="450.908936" cy="189.579361" fx="450.908936" fy="189.579361" r="21.166656" gradientTransform="matrix(-0.00000017417,0.0781325,0.140638,0.000000101539,-12.43936,-7.527482)">
<stop offset="0" style="stop-color:rgb(0%,0%,0%);stop-opacity:0.313725;"/>
<stop offset="0.222222" style="stop-color:rgb(0%,0%,0%);stop-opacity:0.27451;"/>
<stop offset="1" style="stop-color:rgb(0%,0%,0%);stop-opacity:0;"/>
</radialGradient>
<radialGradient id="radial2" gradientUnits="userSpaceOnUse" cx="450.908936" cy="189.579361" fx="450.908936" fy="189.579361" r="21.166656" gradientTransform="matrix(-0.00000017417,-0.0781325,0.140638,-0.000000101539,-12.43936,63.595329)">
<stop offset="0" style="stop-color:rgb(0%,0%,0%);stop-opacity:0.313725;"/>
<stop offset="0.222222" style="stop-color:rgb(0%,0%,0%);stop-opacity:0.27451;"/>
<stop offset="1" style="stop-color:rgb(0%,0%,0%);stop-opacity:0;"/>
</radialGradient>
<radialGradient id="radial3" gradientUnits="userSpaceOnUse" cx="450.908936" cy="189.579361" fx="450.908936" fy="189.579361" r="21.166656" gradientTransform="matrix(0.00000017417,0.0781325,-0.140638,0.000000101539,44.19239,-7.527483)">
<stop offset="0" style="stop-color:rgb(0%,0%,0%);stop-opacity:0.313725;"/>
<stop offset="0.222222" style="stop-color:rgb(0%,0%,0%);stop-opacity:0.27451;"/>
<stop offset="1" style="stop-color:rgb(0%,0%,0%);stop-opacity:0;"/>
</radialGradient>
<linearGradient id="linear0" gradientUnits="userSpaceOnUse" x1="255.323059" y1="233.5" x2="255.323044" y2="254.666656" gradientTransform="matrix(0.0133601,0,0,0.062506,12.465386,13.438784)">
<stop offset="0" style="stop-color:rgb(0%,0%,0%);stop-opacity:0.27451;"/>
<stop offset="1" style="stop-color:rgb(0%,0%,0%);stop-opacity:0;"/>
</linearGradient>
<linearGradient id="linear1" gradientUnits="userSpaceOnUse" x1="760" y1="855.118103" x2="760" y2="175.118134" >
<stop offset="0" style="stop-color:rgb(93.72549%,32.54902%,31.372549%);stop-opacity:1;"/>
<stop offset="1" style="stop-color:rgb(89.803922%,45.098039%,45.098039%);stop-opacity:1;"/>
</linearGradient>
<linearGradient id="linear2" gradientUnits="userSpaceOnUse" x1="333.375" y1="-168.666656" x2="333.375" y2="-20.5" >
<stop offset="0" style="stop-color:rgb(100%,54.117647%,39.607843%);stop-opacity:1;"/>
<stop offset="1" style="stop-color:rgb(100%,43.921569%,26.27451%);stop-opacity:1;"/>
</linearGradient>
<linearGradient id="linear3" gradientUnits="userSpaceOnUse" x1="402.166656" y1="-41.666668" x2="402.166656" y2="138.25" gradientTransform="matrix(1,0,0,1,0.726063,0.00593101)">
<stop offset="0" style="stop-color:rgb(100%,83.529412%,30.980392%);stop-opacity:1;"/>
<stop offset="1" style="stop-color:rgb(100%,79.215686%,15.686275%);stop-opacity:1;"/>
</linearGradient>
<linearGradient id="linear4" gradientUnits="userSpaceOnUse" x1="722.160156" y1="155.957047" x2="722.160156" y2="855.957031" gradientTransform="matrix(-0.264583,0,0,-0.264583,508.571533,280.055298)">
<stop offset="0" style="stop-color:rgb(40%,73.333333%,41.568627%);stop-opacity:1;"/>
<stop offset="1" style="stop-color:rgb(50.588235%,78.039216%,51.764706%);stop-opacity:1;"/>
</linearGradient>
<linearGradient id="linear5" gradientUnits="userSpaceOnUse" x1="312.779877" y1="-20.278038" x2="317.5" y2="-168.666656" gradientTransform="matrix(-1,-0.000000000000000122,0.000000000000000122,-1,508.571533,65.055298)">
<stop offset="0" style="stop-color:rgb(39.215686%,70.980392%,96.470588%);stop-opacity:1;"/>
<stop offset="1" style="stop-color:rgb(25.882353%,64.705882%,96.078431%);stop-opacity:1;"/>
</linearGradient>
<linearGradient id="linear6" gradientUnits="userSpaceOnUse" x1="402.73822" y1="-41.444702" x2="402.73822" y2="133.180298" gradientTransform="matrix(-1,-0.000000000000000122,0.000000000000000122,-1,508.571533,65.055298)">
<stop offset="0" style="stop-color:rgb(49.411765%,34.117647%,76.078431%);stop-opacity:1;"/>
<stop offset="1" style="stop-color:rgb(58.431373%,45.882353%,80.392157%);stop-opacity:1;"/>
</linearGradient>
<linearGradient id="linear7" gradientUnits="userSpaceOnUse" x1="254" y1="5.958333" x2="254" y2="58.875" >
<stop offset="0" style="stop-color:rgb(93.333333%,93.333333%,93.333333%);stop-opacity:1;"/>
<stop offset="1" style="stop-color:rgb(74.117647%,74.117647%,74.117647%);stop-opacity:1;"/>
</linearGradient>
</defs>
<g id="surface1">
<path style=" stroke:none;fill-rule:nonzero;fill:rgb(25.882354%,25.882354%,25.882354%);fill-opacity:0.980392;" d="M 15.875 4.21875 C 21.722656 4.21875 26.460938 9.253906 26.460938 15.464844 C 26.460938 21.675781 21.722656 26.710938 15.875 26.710938 C 10.03125 26.710938 5.292969 21.675781 5.292969 15.464844 C 5.292969 9.253906 10.03125 4.21875 15.875 4.21875 Z M 15.875 4.21875 "/>
<path style=" stroke:none;fill-rule:nonzero;fill:url(#radial0);" d="M 17.859375 28.035156 L 20.507812 28.035156 L 20.507812 26.710938 L 17.859375 26.710938 Z M 17.859375 28.035156 "/>
<path style=" stroke:none;fill-rule:nonzero;fill:url(#radial1);" d="M 13.890625 28.035156 L 11.246094 28.035156 L 11.246094 29.355469 L 13.890625 29.355469 Z M 13.890625 28.035156 "/>
<path style=" stroke:none;fill-rule:nonzero;fill:url(#radial2);" d="M 13.890625 28.035156 L 11.246094 28.035156 L 11.246094 26.710938 L 13.890625 26.710938 Z M 13.890625 28.035156 "/>
<path style=" stroke:none;fill-rule:nonzero;fill:url(#radial3);" d="M 17.859375 28.035156 L 20.507812 28.035156 L 20.507812 29.355469 L 17.859375 29.355469 Z M 17.859375 28.035156 "/>
<path style=" stroke:none;fill-rule:nonzero;fill:url(#linear0);" d="M 13.890625 27.371094 L 17.859375 27.371094 L 17.859375 29.355469 L 13.890625 29.355469 Z M 13.890625 27.371094 "/>
<path style="fill-rule:nonzero;fill:url(#linear1);stroke-width:11.338583;stroke-linecap:square;stroke-linejoin:round;stroke:rgb(12.941177%,12.941177%,12.941177%);stroke-opacity:1;stroke-miterlimit:4;" d="M 956.601613 175.022665 C 718.5141 176.203655 506.880756 285.563296 368.468769 456.806795 L 772.839624 860.941452 Z M 956.601613 175.022665 " transform="matrix(0.016538,0,0,0.016538,0,0)"/>
<path style="fill-rule:nonzero;fill:url(#linear2);stroke-width:3;stroke-linecap:square;stroke-linejoin:round;stroke:rgb(12.941177%,12.941177%,12.941177%);stroke-opacity:1;stroke-miterlimit:4;" d="M 285.722715 -166.254655 L 246.663945 -20.268596 L 428.271602 -68.951447 C 398.461949 -120.134059 346.71689 -156.818056 285.722715 -166.254655 Z M 285.722715 -166.254655 " transform="matrix(0.062506,0,0,0.062506,0,13.438783)"/>
<path style="fill-rule:nonzero;fill:url(#linear3);stroke-width:3;stroke-linecap:square;stroke-linejoin:round;stroke:rgb(12.941177%,12.941177%,12.941177%);stroke-opacity:1;stroke-miterlimit:4;" d="M 442.145277 -39.829228 L 296.03423 -0.64547 L 429.02153 132.279336 C 445.832425 102.907141 455.394012 68.847894 455.394012 32.413873 C 455.394012 6.916308 450.70696 -17.39387 442.145277 -39.829228 Z M 442.145277 -39.829228 " transform="matrix(0.062506,0,0,0.062506,0,13.438783)"/>
<path style="fill-rule:nonzero;fill:url(#linear4);stroke-width:3;stroke-linecap:square;stroke-linejoin:round;stroke:rgb(12.941177%,12.941177%,12.941177%);stroke-opacity:1;stroke-miterlimit:4;" d="M 255.475603 233.707151 C 318.469588 233.457174 374.46424 204.522438 411.085743 159.214264 L 304.09596 52.224481 Z M 255.475603 233.707151 " transform="matrix(0.062506,0,0,0.062506,0,13.438783)"/>
<path style="fill-rule:nonzero;fill:url(#linear5);stroke-width:3;stroke-linecap:square;stroke-linejoin:round;stroke:rgb(12.941177%,12.941177%,12.941177%);stroke-opacity:1;stroke-miterlimit:4;" d="M 222.791225 231.332377 L 261.912489 85.346318 L 80.304831 134.029169 C 110.051991 185.149288 161.859543 221.833285 222.791225 231.332377 Z M 222.791225 231.332377 " transform="matrix(0.062506,0,0,0.062506,0,13.438783)"/>
<path style="fill-rule:nonzero;fill:url(#linear6);stroke-width:3;stroke-linecap:square;stroke-linejoin:round;stroke:rgb(12.941177%,12.941177%,12.941177%);stroke-opacity:1;stroke-miterlimit:4;" d="M 67.181085 104.90695 L 213.229638 65.723192 L 80.242337 -67.264108 C 63.493937 -37.829419 53.93235 -3.770171 53.93235 32.663849 C 53.93235 58.09892 58.619402 82.471593 67.181085 104.90695 Z M 67.181085 104.90695 " transform="matrix(0.062506,0,0,0.062506,0,13.438783)"/>
<path style=" stroke:none;fill-rule:nonzero;fill:rgb(0%,0%,0%);fill-opacity:0.235294;" d="M 15.847656 2.898438 C 15.84375 2.898438 15.84375 2.898438 15.839844 2.898438 L 12.890625 13.910156 L 6.308594 7.328125 C 6.246094 7.402344 6.183594 7.480469 6.121094 7.554688 L 12.804688 14.242188 Z M 26.609375 8.863281 L 15.503906 11.839844 L 15.414062 12.171875 L 26.769531 9.128906 C 26.71875 9.039062 26.664062 8.953125 26.609375 8.863281 Z M 3.753906 12.222656 C 3.480469 13.257812 3.332031 14.34375 3.332031 15.464844 C 3.332031 17.058594 3.628906 18.582031 4.164062 19.980469 L 13.292969 17.535156 L 13.050781 17.289062 L 4.246094 19.648438 C 3.710938 18.25 3.417969 16.726562 3.417969 15.132812 C 3.417969 14.132812 3.53125 13.15625 3.753906 12.222656 Z M 18.835938 13.308594 L 18.511719 13.398438 L 26.824219 21.707031 C 27.410156 20.679688 27.855469 19.5625 28.136719 18.378906 C 27.855469 19.441406 27.4375 20.445312 26.90625 21.378906 Z M 16.390625 18.757812 L 16.382812 18.761719 L 14.027344 27.554688 C 10.320312 26.976562 7.160156 24.796875 5.277344 21.738281 L 5.035156 21.800781 C 6.898438 25 10.132812 27.292969 13.945312 27.882812 Z M 25.578125 23.269531 C 23.289062 25.972656 19.875 27.683594 16.046875 27.703125 L 15.960938 28.035156 C 19.894531 28.015625 23.394531 26.207031 25.683594 23.375 Z M 25.578125 23.269531 "/>
<path style=" stroke:none;fill-rule:nonzero;fill:rgb(100%,100%,100%);fill-opacity:0.392157;" d="M 15.84375 2.894531 C 11.90625 2.914062 8.410156 4.722656 6.117188 7.554688 L 6.195312 7.628906 C 8.476562 4.859375 11.921875 3.09375 15.800781 3.0625 Z M 17.859375 3.046875 L 15.414062 12.171875 L 15.460938 12.160156 L 17.859375 3.210938 C 21.613281 3.792969 24.808594 6.027344 26.683594 9.152344 L 26.769531 9.128906 C 24.90625 5.929688 21.671875 3.636719 17.859375 3.046875 Z M 4.980469 9.222656 C 3.929688 11.058594 3.332031 13.191406 3.332031 15.464844 C 3.332031 15.488281 3.332031 15.511719 3.332031 15.535156 C 3.347656 13.292969 3.945312 11.199219 4.980469 9.386719 L 13.160156 17.570312 L 13.292969 17.535156 Z M 27.640625 10.949219 L 18.507812 13.394531 L 18.640625 13.527344 L 27.640625 11.113281 C 28.167969 12.496094 28.460938 13.992188 28.46875 15.5625 C 28.46875 15.527344 28.46875 15.496094 28.46875 15.464844 C 28.46875 13.871094 28.175781 12.351562 27.640625 10.949219 Z M 18.996094 16.691406 L 15.957031 28.035156 C 15.972656 28.035156 15.988281 28.03125 16 28.03125 L 18.996094 16.855469 L 25.609375 23.464844 C 25.632812 23.4375 25.65625 23.40625 25.683594 23.375 Z M 16.386719 18.757812 L 5.035156 21.800781 C 5.0625 21.847656 5.089844 21.894531 5.117188 21.945312 L 16.339844 18.9375 Z M 16.386719 18.757812 "/>
<path style="fill:none;stroke-width:3;stroke-linecap:square;stroke-linejoin:round;stroke:rgb(12.941177%,12.941177%,12.941177%);stroke-opacity:1;stroke-miterlimit:4;" d="M 253.850758 -168.691922 C 190.856774 -168.379452 134.862121 -139.444715 98.240618 -94.136542 L 205.167907 12.790747 Z M 286.035185 -166.254655 L 246.913921 -20.268596 L 428.584072 -68.951447 C 398.774419 -120.134059 347.02936 -156.818056 286.035185 -166.254655 Z M 79.992361 -67.45159 C 63.243961 -38.079395 53.61988 -3.957654 53.61988 32.413873 C 53.61988 57.911438 58.369426 82.284111 66.931108 104.656974 L 212.979661 65.53571 Z M 442.520241 -39.829228 L 296.471688 -0.707964 L 429.458989 132.279336 C 446.207389 102.907141 455.83147 68.847894 455.83147 32.413873 C 455.83147 6.916308 451.144418 -17.39387 442.520241 -39.829228 Z M 304.283442 52.036999 L 255.663085 233.519669 C 318.594576 233.207198 374.589229 204.272461 411.210731 158.964288 Z M 262.537429 85.096342 L 80.867278 133.779193 C 110.676931 184.961806 162.421989 221.645802 223.416165 231.082401 Z M 262.537429 85.096342 " transform="matrix(0.062506,0,0,0.062506,0,13.438783)"/>
<path style="fill-rule:nonzero;fill:url(#linear7);stroke-width:3;stroke-linecap:square;stroke-linejoin:round;stroke:rgb(12.941177%,12.941177%,12.941177%);stroke-opacity:1;stroke-miterlimit:4;" d="M 253.975747 5.978898 C 268.59935 5.978898 280.473216 17.79027 280.473216 32.413873 C 280.473216 47.037477 268.59935 58.848849 253.975747 58.848849 C 239.414637 58.848849 227.540771 47.037477 227.540771 32.413873 C 227.540771 17.79027 239.414637 5.978898 253.975747 5.978898 Z M 253.975747 5.978898 " transform="matrix(0.062506,0,0,0.062506,0,13.438783)"/>
</g>
</svg>

<svg xmlns="http://www.w3.org/2000/svg" width="32pt" height="32pt" viewBox="0 0 32 32"><defs><radialGradient id="a" gradientUnits="userSpaceOnUse" cx="450.909" cy="189.579" fx="450.909" fy="189.579" r="21.167" gradientTransform="matrix(0 -.07813 -.14064 0 44.192 63.595)"><stop offset="0" stop-opacity=".314"/><stop offset=".222" stop-opacity=".275"/><stop offset="1" stop-opacity="0"/></radialGradient><radialGradient id="b" gradientUnits="userSpaceOnUse" cx="450.909" cy="189.579" fx="450.909" fy="189.579" r="21.167" gradientTransform="matrix(0 .07813 .14064 0 -12.44 -7.527)"><stop offset="0" stop-opacity=".314"/><stop offset=".222" stop-opacity=".275"/><stop offset="1" stop-opacity="0"/></radialGradient><radialGradient id="c" gradientUnits="userSpaceOnUse" cx="450.909" cy="189.579" fx="450.909" fy="189.579" r="21.167" gradientTransform="matrix(0 -.07813 .14064 0 -12.44 63.595)"><stop offset="0" stop-opacity=".314"/><stop offset=".222" stop-opacity=".275"/><stop offset="1" stop-opacity="0"/></radialGradient><radialGradient id="d" gradientUnits="userSpaceOnUse" cx="450.909" cy="189.579" fx="450.909" fy="189.579" r="21.167" gradientTransform="matrix(0 .07813 -.14064 0 44.192 -7.527)"><stop offset="0" stop-opacity=".314"/><stop offset=".222" stop-opacity=".275"/><stop offset="1" stop-opacity="0"/></radialGradient><linearGradient id="e" gradientUnits="userSpaceOnUse" x1="255.323" y1="233.5" x2="255.323" y2="254.667" gradientTransform="matrix(.01336 0 0 .0625 12.465 13.439)"><stop offset="0" stop-opacity=".275"/><stop offset="1" stop-opacity="0"/></linearGradient><linearGradient id="f" gradientUnits="userSpaceOnUse" x1="760" y1="855.118" x2="760" y2="175.118"><stop offset="0" stop-color="#ef5350"/><stop offset="1" stop-color="#e57373"/></linearGradient><linearGradient id="g" gradientUnits="userSpaceOnUse" x1="333.375" y1="-168.667" x2="333.375" y2="-20.5"><stop offset="0" stop-color="#ff8a65"/><stop offset="1" stop-color="#ff7043"/></linearGradient><linearGradient id="h" gradientUnits="userSpaceOnUse" x1="402.167" y1="-41.667" x2="402.167" y2="138.25" gradientTransform="translate(.726 .006)"><stop offset="0" stop-color="#ffd54f"/><stop offset="1" stop-color="#ffca28"/></linearGradient><linearGradient id="i" gradientUnits="userSpaceOnUse" x1="722.16" y1="155.957" x2="722.16" y2="855.957" gradientTransform="matrix(-.26458 0 0 -.26458 508.572 280.055)"><stop offset="0" stop-color="#66bb6a"/><stop offset="1" stop-color="#81c784"/></linearGradient><linearGradient id="j" gradientUnits="userSpaceOnUse" x1="312.78" y1="-20.278" x2="317.5" y2="-168.667" gradientTransform="rotate(-180 254.286 32.528)"><stop offset="0" stop-color="#64b5f6"/><stop offset="1" stop-color="#42a5f5"/></linearGradient><linearGradient id="k" gradientUnits="userSpaceOnUse" x1="402.738" y1="-41.445" x2="402.738" y2="133.18" gradientTransform="rotate(-180 254.286 32.528)"><stop offset="0" stop-color="#7e57c2"/><stop offset="1" stop-color="#9575cd"/></linearGradient><linearGradient id="l" gradientUnits="userSpaceOnUse" x1="254" y1="5.958" x2="254" y2="58.875"><stop offset="0" stop-color="#eee"/><stop offset="1" stop-color="#bdbdbd"/></linearGradient></defs><path d="M15.875 4.219c5.848 0 10.586 5.035 10.586 11.246 0 6.21-4.738 11.246-10.586 11.246-5.844 0-10.582-5.035-10.582-11.246S10.031 4.219 15.875 4.219zm0 0" fill="#424242" fill-opacity=".98"/><path d="M17.86 28.035h2.648v-1.324h-2.649zm0 0" fill="url(#a)"/><path d="M13.89 28.035h-2.644v1.32h2.645zm0 0" fill="url(#b)"/><path d="M13.89 28.035h-2.644v-1.324h2.645zm0 0" fill="url(#c)"/><path d="M17.86 28.035h2.648v1.32h-2.649zm0 0" fill="url(#d)"/><path d="M13.89 27.371h3.97v1.984h-3.97zm0 0" fill="url(#e)"/><path d="M956.602 175.023c-238.088 1.18-449.721 110.54-588.133 281.784l404.37 404.134zm0 0" transform="rotate(.891) scale(.01654)" fill="url(#f)" stroke-width="11.339" stroke-linecap="square" stroke-linejoin="round" stroke="#212121"/><path d="M285.723-166.255l-39.06 145.986L428.273-68.95c-29.81-51.183-81.555-87.867-142.55-97.304zm0 0" transform="matrix(.0625 0 0 .0625 0 13.439)" fill="url(#g)" stroke-width="3" stroke-linecap="square" stroke-linejoin="round" stroke="#212121"/><path d="M442.145-39.83L296.035-.644l132.987 132.924c16.81-29.372 26.372-63.431 26.372-99.865 0-25.498-4.687-49.808-13.249-72.243zm0 0" transform="matrix(.0625 0 0 .0625 0 13.439)" fill="url(#h)" stroke-width="3" stroke-linecap="square" stroke-linejoin="round" stroke="#212121"/><path d="M255.476 233.707c62.994-.25 118.988-29.185 155.61-74.493l-106.99-106.99zm0 0" transform="matrix(.0625 0 0 .0625 0 13.439)" fill="url(#i)" stroke-width="3" stroke-linecap="square" stroke-linejoin="round" stroke="#212121"/><path d="M222.791 231.332l39.121-145.986L80.305 134.03c29.747 51.12 81.555 87.804 142.486 97.303zm0 0" transform="matrix(.0625 0 0 .0625 0 13.439)" fill="url(#j)" stroke-width="3" stroke-linecap="square" stroke-linejoin="round" stroke="#212121"/><path d="M67.181 104.907L213.23 65.723 80.242-67.264C63.494-37.83 53.932-3.77 53.932 32.664c0 25.435 4.687 49.808 13.25 72.243zm0 0" transform="matrix(.0625 0 0 .0625 0 13.439)" fill="url(#k)" stroke-width="3" stroke-linecap="square" stroke-linejoin="round" stroke="#212121"/><path d="M15.848 2.898h-.008L12.89 13.91 6.31 7.328c-.063.074-.125.152-.188.227l6.684 6.687zm10.761 5.965L15.504 11.84l-.09.332L26.77 9.129c-.051-.09-.106-.176-.16-.266zm-22.855 3.36a12.676 12.676 0 0 0 .41 7.757l9.129-2.445-.242-.246-8.805 2.36a12.612 12.612 0 0 1-.828-4.516c0-1 .113-1.977.336-2.91zm15.082 1.086l-.324.09 8.312 8.308a12.583 12.583 0 0 0 1.313-3.328 12.56 12.56 0 0 1-1.23 3zm-2.445 5.449l-.008.004-2.356 8.793a12.54 12.54 0 0 1-8.75-5.817l-.242.063a12.53 12.53 0 0 0 8.91 6.082zm9.187 4.512a12.524 12.524 0 0 1-9.531 4.433l-.086.332a12.539 12.539 0 0 0 9.723-4.66zm0 0" fill-opacity=".235"/><path d="M15.844 2.895a12.547 12.547 0 0 0-9.727 4.66l.078.074a12.524 12.524 0 0 1 9.606-4.566zm2.015.152l-2.445 9.125.047-.012 2.398-8.95a12.533 12.533 0 0 1 8.825 5.942l.086-.023a12.53 12.53 0 0 0-8.91-6.082zM4.98 9.223a12.529 12.529 0 0 0-1.648 6.242v.07A12.525 12.525 0 0 1 4.98 9.387l8.18 8.183.133-.035zm22.66 1.726l-9.132 2.446.133.132 9-2.414c.527 1.383.82 2.88.828 4.45v-.098c0-1.594-.293-3.113-.828-4.516zm-8.644 5.742l-3.039 11.344c.016 0 .031-.004.043-.004l2.996-11.176 6.613 6.61c.024-.027.047-.059.075-.09zm-2.61 2.067L5.037 21.8l.081.144 11.223-3.008zm0 0" fill="#fff" fill-opacity=".392"/><path d="M15.867 2.895a12.54 12.54 0 0 0-9.726 4.66l6.683 6.683zm2.012.152l-2.445 9.125 11.355-3.043a12.53 12.53 0 0 0-8.91-6.082zM5 9.223a12.57 12.57 0 0 0-1.648 6.242c0 1.594.296 3.117.832 4.515l9.129-2.445zm22.66 1.726l-9.129 2.446 8.313 8.312a12.558 12.558 0 0 0 1.648-6.242c0-1.594-.293-3.113-.832-4.516zm-8.64 5.742l-3.04 11.344a12.539 12.539 0 0 0 9.723-4.66zm-2.61 2.067L5.055 21.8a12.53 12.53 0 0 0 8.91 6.082zm0 0" fill="none" stroke-width=".18752999999999997" stroke-linecap="square" stroke-linejoin="round" stroke="#212121"/><path d="M253.976 5.979c14.623 0 26.497 11.811 26.497 26.435 0 14.623-11.874 26.435-26.497 26.435-14.561 0-26.435-11.812-26.435-26.435 0-14.624 11.874-26.435 26.435-26.435zm0 0" transform="matrix(.0625 0 0 .0625 0 13.439)" fill="url(#l)" stroke-width="3" stroke-linecap="square" stroke-linejoin="round" stroke="#212121"/></svg>
